X: 130028
T: The ACADEMY JIG
C: J. RULE
R: Jig.
%R: jig
B: James Kerr "Merry Melodies" v.1 p.30 s.0 #28
Z: 2016 John Chambers <jc:trillian.mit.edu>
M: 6/8
L: 1/8
K: G
E |\
vD2vG GAB | vc2vA ud2uc | B2g dcB | A2E GFE |\
D2G GAB | c2A d2c | Bgf edc | B2G G2 :|
|: uB |\
vd2vB gfe | d2g B2d | c2a B2g | A2d cBc |\
d2B gfe | d2g B2d | c2a Adc | B2G G2 :|

%%sep 1 1 500
%%sep 1 1 500

